assets/Red envelope/Flat/red_envelope_flat.svg

<svg width="32" height="32" viewBox="0 0 32 32" fill="none" xmlns="http://www.w3.org/2000/svg">
<path d="M28.8687 2H3.14122C2.51054 2 2 2.51 2 3.14V28.86C2 29.49 2.51054 30 3.14122 30H28.8586C29.4893 30 29.9999 29.49 29.9999 28.86V3.14C30.0099 2.51 29.4893 2 28.8687 2Z" fill="#F8312F"/>
<path d="M21.1343 12.8936L29.98 7.56V8.73L21.5812 13.7932C21.8515 14.4763 22 15.2208 22 16C22 19.3137 19.3137 22 16 22C12.6863 22 10 19.3137 10 16C10 15.2245 10.1471 14.4834 10.415 13.803L2 8.73V7.56L10.8583 12.9058C11.9085 11.1645 13.8183 10 16 10C18.1766 10 20.0825 11.159 21.1343 12.8936Z" fill="#CA0B4A"/>
<path d="M15.9446 12.9718H15.8946C15.7246 12.9618 15.5846 12.8318 15.5646 12.6518C15.5446 12.4618 15.6946 12.2918 15.8846 12.2718L18.7646 12.0018C18.9546 11.9818 19.1246 12.1318 19.1446 12.3218C19.1646 12.5118 19.0146 12.6818 18.8246 12.7018L15.9446 12.9718Z" fill="#FCD53F"/>
<path d="M14.5246 13.6318C14.5946 13.7018 14.6846 13.7318 14.7746 13.7318C14.8646 13.7318 14.9546 13.6918 15.0246 13.6218C15.1646 13.4818 15.1546 13.2618 15.0146 13.1218L14.0646 12.2018C13.9246 12.0618 13.7046 12.0718 13.5646 12.2118C13.4246 12.3518 13.4346 12.5718 13.5746 12.7118L14.5246 13.6318Z" fill="#FCD53F"/>
<path fill-rule="evenodd" clip-rule="evenodd" d="M16.0646 13.4818L19.0646 13.2218C19.1846 13.2118 19.3046 13.2718 19.3846 13.3518C19.4546 13.4518 19.4746 13.5818 19.4346 13.6918L18.9046 15.1018C18.8546 15.2318 18.7346 15.3218 18.5946 15.3318L16.6346 15.4718H16.6146C16.4646 15.4718 16.3346 15.3918 16.2846 15.2518L15.7646 13.9718C15.7246 13.8618 15.7346 13.7518 15.7946 13.6518C15.8546 13.5518 15.9546 13.4918 16.0646 13.4818ZM16.8446 14.7518L18.3246 14.6518L18.5746 13.9818L16.6046 14.1518L16.8446 14.7518Z" fill="#FCD53F"/>
<path fill-rule="evenodd" clip-rule="evenodd" d="M20.0746 16.0818L20.0346 17.4218C20.0346 17.4218 20.0346 17.4318 20.0246 17.4318L19.9846 18.7218C19.9846 18.9118 19.8346 19.0618 19.6446 19.0618L17.6146 19.1118L15.7646 19.1518H15.7546C15.5746 19.1518 15.4146 19.0118 15.4046 18.8218L15.3146 17.2618L14.2546 16.8718V19.3318C14.2546 19.5218 14.0946 19.6818 13.9046 19.6818C13.7146 19.6818 13.5546 19.5218 13.5546 19.3318V16.5618L12.6346 17.6718C12.5646 17.7618 12.4646 17.8018 12.3646 17.8018C12.2846 17.8018 12.2046 17.7718 12.1346 17.7218C11.9846 17.5918 11.9646 17.3718 12.0846 17.2218L14.0946 14.8018L12.4246 15.1318C12.2246 15.1718 12.0446 15.0418 12.0046 14.8518C11.9746 14.6518 12.0946 14.4718 12.2846 14.4318L14.9346 13.9018C15.0746 13.8818 15.2246 13.9418 15.3046 14.0718C15.3846 14.2018 15.3746 14.3618 15.2746 14.4818L14.2546 15.7118V16.1118L15.2746 16.4818L15.2646 16.3818C15.2546 16.1918 15.4046 16.0218 15.5946 16.0118L19.6946 15.7118C19.7946 15.7118 19.8946 15.7418 19.9646 15.8118C20.0346 15.8818 20.0746 15.9818 20.0746 16.0818ZM17.9146 17.1518L19.3446 17.0918L19.3746 16.4418L17.8946 16.5518L17.9146 17.1518ZM17.2046 17.1918L17.1846 16.6118L15.9946 16.6918L16.0246 17.2418L17.2046 17.1918ZM17.2246 17.9018L16.0646 17.9518L16.0946 18.4518L17.2446 18.4218L17.2246 17.9018ZM17.9346 17.8718L17.9546 18.4018L19.3046 18.3718L19.3246 17.8118L17.9346 17.8718Z" fill="#FCD53F"/>
</svg>

<svg xmlns="http://www.w3.org/2000/svg" width="32" height="32" fill="none"><path fill="#F8312F" d="M28.869 2H3.14C2.511 2 2 2.51 2 3.14v25.72c0 .63.51 1.14 1.141 1.14H28.86c.63 0 1.14-.51 1.14-1.14V3.14c.01-.63-.51-1.14-1.13-1.14Z"/><path fill="#CA0B4A" d="M21.134 12.894 29.98 7.56v1.17l-8.399 5.063a6 6 0 1 1-11.166.01L2 8.73V7.56l8.858 5.346A5.997 5.997 0 0 1 16 10a5.997 5.997 0 0 1 5.134 2.894Z"/><path fill="#FCD53F" d="M15.945 12.972h-.05a.353.353 0 0 1-.33-.32c-.02-.19.13-.36.32-.38l2.88-.27c.19-.02.36.13.38.32.02.19-.13.36-.32.38l-2.88.27ZM14.525 13.632c.07.07.16.1.25.1s.18-.04.25-.11a.35.35 0 0 0-.01-.5l-.95-.92a.35.35 0 0 0-.5.01.35.35 0 0 0 .01.5l.95.92Z"/><path fill="#FCD53F" fill-rule="evenodd" d="m16.065 13.482 3-.26c.12-.01.24.05.32.13.07.1.09.23.05.34l-.53 1.41a.36.36 0 0 1-.31.23l-1.96.14h-.02c-.15 0-.28-.08-.33-.22l-.52-1.28a.361.361 0 0 1 .03-.32c.06-.1.16-.16.27-.17Zm.78 1.27 1.48-.1.25-.67-1.97.17.24.6Z" clip-rule="evenodd"/><path fill="#FCD53F" fill-rule="evenodd" d="m20.075 16.082-.04 1.34s0 .01-.01.01l-.04 1.29c0 .19-.15.34-.34.34l-2.03.05-1.85.04h-.01a.35.35 0 0 1-.35-.33l-.09-1.56-1.06-.39v2.46c0 .19-.16.35-.35.35-.19 0-.35-.16-.35-.35v-2.77l-.92 1.11c-.07.09-.17.13-.27.13a.4.4 0 0 1-.23-.08.362.362 0 0 1-.05-.5l2.01-2.42-1.67.33c-.2.04-.38-.09-.42-.28-.03-.2.09-.38.28-.42l2.65-.53c.14-.02.29.04.37.17.08.13.07.29-.03.41l-1.02 1.23v.4l1.02.37-.01-.1c-.01-.19.14-.36.33-.37l4.1-.3c.1 0 .2.03.27.1s.11.17.11.27Zm-2.16 1.07 1.43-.06.03-.65-1.48.11.02.6Zm-.71.04-.02-.58-1.19.08.03.55 1.18-.05Zm.02.71-1.16.05.03.5 1.15-.03-.02-.52Zm.71-.03.02.53 1.35-.03.02-.56-1.39.06Z" clip-rule="evenodd"/></svg>
